X:1
T:Title
%%score { 1 | 2 }
L:1/8
M:4/4
K:G
V:1 treble nm="Grand Piano"
V:2 treble 
V:1
 z4 z2[Q:1/4=100] d2 | d2 B2 [FB]2 [FA]2 | [DA]4 [DG]2 [DG]2 | G2 G2 F2 [^DF]2 |[M:3/4] E6 | %5
[M:1/4] B2 |[M:4/4] B2 A2 [FA]2 [FB]2 | B4 E2 E2 | [^CE]2 [CF]2 [CG]2 [CB]2 |[M:3/4] [DA]6 | %10
[M:1/4] [Fd]2 |[M:4/4] [Gd]2 [GB]2 [FB]2 [FA]2 | A4 G2 G2 | [Ec]2 [Ec]2 [EG]2 [EA]2 | %14
[M:3/4] [^DB]6 |[M:1/4] [EB]2 |[M:4/4] [Ec]2 [Ec]2 G2 A2 |[M:9/8] B3- B d2- d B2 | %18
[M:4/4] [EGB]2 [B,G]2 [EGA]2 [DFA]2 |[M:7/4] [B,DG]6 z2 z2 z4 |[M:4/4] [CEG]4 [B,DG]4 |] %21
V:2
 z4 z2 [G,B,G]2 | [G,B,G]2 [G,DG]2[K:bass] [D,D]2 [D,C]2 | [G,C]4 [G,B,]2 [B,,G,]2 | %3
 [E,B,E]2 [G,B,E]2 [B,E]2 [B,,A,]2 |[M:3/4] [E,G,]6 |[M:1/4] [E,G,E]2 | %6
[M:4/4] [G,B,E]2 [A,CE]2 [^D,C]2 [D,B,]2 | [E,G,E]4 [E,G,]2 [E,G,B,]2 | %8
 [A,,A,]2 [A,,A,]2 [A,,A,]2 [A,,G,]2 |[M:3/4] [D,F,]6 |[M:1/4] [D,C]2 | %11
[M:4/4] [G,B,]2 [G,D]2 [D,D]2 [D,C]2 | [G,CD]4 [G,B,D]2 [G,B,=F]2 | %13
 [C,G,]2 [C,G,]2 [C,C]2 [C,E,]2 |[M:3/4] [B,,F,]6 |[M:1/4] [E,G,]2 | %16
[M:4/4] [C,G,]2 [C,G,]2 [E,C]2 [D,F,D]2 | %17
[M:9/8][K:treble] [G,D]3- [G,D] [G,B,G]2- [G,B,G] [G,DG]2 |[M:4/4][K:bass] E,2 E,2 C,2 D,2 | %19
[M:7/4] G,6 z2 z2 z4 |[M:4/4] C,4 G,4 |] %21

